static/fa/svgs/solid/cart-plus.svg

<svg xmlns="http://www.w3.org/2000/svg" viewBox="0 0 576 512"><!--! Font Awesome Free 6.1.1 by @fontawesome - https://fontawesome.com License - https://fontawesome.com/license/free (Icons: CC BY 4.0, Fonts: SIL OFL 1.1, Code: MIT License) Copyright 2022 Fonticons, Inc.--><path d="M96 0c11.5 0 21.4 8.19 23.6 19.51L121.1 32h420.7c20.3 0 36.5 20.25 30.8 40.66l-54 192.04c-3.9 13.8-16.5 23.3-30.8 23.3H170.7l9.2 48H488c13.3 0 24 10.7 24 24s-10.7 24-24 24H159.1c-10.6 0-20.5-8.2-22.7-19.5L76.14 48H24C10.75 48 0 37.25 0 24S10.75 0 24 0h72zm176 180h44v44c0 11 8.1 20 20 20 11 0 20-9 20-20v-44h44c11 0 20-9 20-20 0-11.9-9-20-20-20h-44V96c0-11.05-9-20-20-20-11.9 0-20 8.95-20 20v44h-44c-11.9 0-20 8.1-20 20 0 11 8.1 20 20 20zM128 464c0-26.5 21.5-48 48-48s48 21.5 48 48-21.5 48-48 48-48-21.5-48-48zm384 0c0 26.5-21.5 48-48 48s-48-21.5-48-48 21.5-48 48-48 48 21.5 48 48z"/></svg>

<svg xmlns="http://www.w3.org/2000/svg" viewBox="0 0 576 512"><!--! Font Awesome Free 6.1.1 by @fontawesome - https://fontawesome.com License - https://fontawesome.com/license/free (Icons: CC BY 4.0, Fonts: SIL OFL 1.1, Code: MIT License) Copyright 2022 Fonticons, Inc. --><path d="M96 0C107.5 0 117.4 8.19 119.6 19.51L121.1 32H541.8C562.1 32 578.3 52.25 572.6 72.66L518.6 264.7C514.7 278.5 502.1 288 487.8 288H170.7L179.9 336H488C501.3 336 512 346.7 512 360C512 373.3 501.3 384 488 384H159.1C148.5 384 138.6 375.8 136.4 364.5L76.14 48H24C10.75 48 0 37.25 0 24C0 10.75 10.75 0 24 0H96zM272 180H316V224C316 235 324.1 244 336 244C347 244 356 235 356 224V180H400C411 180 420 171 420 160C420 148.1 411 140 400 140H356V96C356 84.95 347 76 336 76C324.1 76 316 84.95 316 96V140H272C260.1 140 252 148.1 252 160C252 171 260.1 180 272 180zM128 464C128 437.5 149.5 416 176 416C202.5 416 224 437.5 224 464C224 490.5 202.5 512 176 512C149.5 512 128 490.5 128 464zM512 464C512 490.5 490.5 512 464 512C437.5 512 416 490.5 416 464C416 437.5 437.5 416 464 416C490.5 416 512 437.5 512 464z"/></svg>
